X: 16
T: Maid of Saragossa
T: Earl Grey's waltz
R: waltz
M: 3/4
L: 1/8
N: Another version of this tune, Earl Grey's Waltz, is in Christpher Liddell's manuscript  (see  The
N: Morpeth  Rant,  Dragonfly  Music,  1990,  a  little easier to read than this..).  Both have three
N: strains but not the same three - 1 and 3 here are Liddell's 1 and 2 - so that combining  the  two
N: would  give four strains.  The title here suggests, but does not prove, that Liddell's title is a
N: local renaming.
Z: 2010 John Chambers <jc:trillian.mit.edu>
B: Anonymous manuscript tune book (1800-1840) p.24
F: http://www.asaplive.com/archive/browse_by_collection.asp
N: The asaplive.com web site is complex, and links to its files don't usually work.
N: This tune is very poorly written, and some notes here man not be what was intended. [jc]
K: D
   A2 |   f3 cdB |   BAFAFA |   AGEGEG |   BAFAFA | f2 fcdB | BAFAFA  | AG E2c2 | d4 :|
|: A2 |{A}G2EGEG |{B}A2FAFA |{A}G2EGEG |{B}A2FAFA | f3  cdB | BA FAFA | BA E2c2 | d4 :|
   d2 |   c3 Ace |   e3 Adf |   e2dfga |  ba gfed | c2 cBce | d2 dAdf | efgece  | d4 |]


%%sep 5 1 500

